imgs/iconos rrss/facebook.svg

<svg xmlns="http://www.w3.org/2000/svg"  viewBox="0 0 50 50" width="50px" height="50px"><path d="M 25 2 C 12.309295 2 2 12.309295 2 25 C 2 37.690705 12.309295 48 25 48 C 37.690705 48 48 37.690705 48 25 C 48 12.309295 37.690705 2 25 2 z M 25 4 C 36.609824 4 46 13.390176 46 25 C 46 36.609824 36.609824 46 25 46 C 13.390176 46 4 36.609824 4 25 C 4 13.390176 13.390176 4 25 4 z M 26.580078 10 C 23.92822 10 21.917076 10.867217 20.677734 12.400391 C 19.438393 13.933564 19 15.981046 19 18.226562 L 19 20 L 17 20 A 1.0001 1.0001 0 0 0 16 21 L 16 26 A 1.0001 1.0001 0 0 0 17 27 L 19 27 L 19 39 A 1.0001 1.0001 0 0 0 20 40 L 26 40 A 1.0001 1.0001 0 0 0 27 39 L 27 27 L 31 27 A 1.0001 1.0001 0 0 0 31.980469 26.195312 L 32.980469 21.195312 A 1.0001 1.0001 0 0 0 32 20 L 27 20 L 27 17.806641 C 27 17.321617 27.03137 17.325614 27.171875 17.234375 C 27.312385 17.143136 27.820197 17 28.710938 17 L 32 17 A 1.0001 1.0001 0 0 0 33 16 L 33 12 A 1.0001 1.0001 0 0 0 32.335938 11.058594 C 32.335938 11.058594 29.456337 10 26.580078 10 z M 26.580078 12 C 28.472499 12 30.227501 12.510447 31 12.751953 L 31 15 L 28.710938 15 C 27.663677 15 26.813974 15.08458 26.083984 15.558594 C 25.353995 16.032605 25 16.940664 25 17.806641 L 25 21 A 1.0001 1.0001 0 0 0 26 22 L 30.779297 22 L 30.179688 25 L 26 25 A 1.0001 1.0001 0 0 0 25 26 L 25 38 L 21 38 L 21 26 A 1.0001 1.0001 0 0 0 20 25 L 18 25 L 18 22 L 20 22 A 1.0001 1.0001 0 0 0 21 21 L 21 18.226562 C 21 16.24708 21.405014 14.681779 22.232422 13.658203 C 23.05983 12.634627 24.336936 12 26.580078 12 z"/></svg>

<?xml version="1.0" encoding="utf-8"?>
<!-- Generator: Adobe Illustrator 26.0.0, SVG Export Plug-In . SVG Version: 6.00 Build 0)  -->
<svg version="1.1" id="Capa_1" xmlns="http://www.w3.org/2000/svg" xmlns:xlink="http://www.w3.org/1999/xlink" x="0px" y="0px"
	 viewBox="0 0 50 50" style="enable-background:new 0 0 50 50;" xml:space="preserve">
<path d="M25,2C12.3,2,2,12.3,2,25s10.3,23,23,23s23-10.3,23-23S37.7,2,25,2z M25,4c11.6,0,21,9.4,21,21s-9.4,21-21,21S4,36.6,4,25
	S13.4,4,25,4z M26.6,10c-2.7,0-4.7,0.9-5.9,2.4S19,16,19,18.2V20h-2c-0.6,0-1,0.4-1,1v5c0,0.6,0.4,1,1,1h2v12c0,0.6,0.4,1,1,1h6
	c0.6,0,1-0.4,1-1V27h4c0.5,0,0.9-0.3,1-0.8l1-5c0.1-0.5-0.2-1.1-0.8-1.2c-0.1,0-0.1,0-0.2,0h-5v-2.2c0-0.5,0-0.5,0.2-0.6
	c0.1-0.1,0.6-0.2,1.5-0.2H32c0.6,0,1-0.4,1-1v-4c0-0.4-0.3-0.8-0.7-0.9C32.3,11.1,29.5,10,26.6,10z M26.6,12c1.9,0,3.6,0.5,4.4,0.8
	V15h-2.3c-1,0-1.9,0.1-2.6,0.6C25.4,16,25,16.9,25,17.8V21c0,0.6,0.4,1,1,1h4.8l-0.6,3H26c-0.6,0-1,0.4-1,1v12h-4V26
	c0-0.6-0.4-1-1-1h-2v-3h2c0.6,0,1-0.4,1-1v-2.8c0-2,0.4-3.5,1.2-4.6S24.3,12,26.6,12z"/>
</svg>
